src/icon.svg

<?xml version="1.0" encoding="UTF-8" standalone="no"?>
<svg width="100px" height="100px" viewBox="0 0 100 100" version="1.1" xmlns="http://www.w3.org/2000/svg" xmlns:xlink="http://www.w3.org/1999/xlink" xmlns:sketch="http://www.bohemiancoding.com/sketch/ns">
    <!-- Generator: Sketch 3.1.1 (8761) - http://www.bohemiancoding.com/sketch -->
    <title>CP JS</title>
    <desc>Created with Sketch.</desc>
    <defs></defs>
    <g id="Page-1" stroke="none" stroke-width="1" fill="none" fill-rule="evenodd" sketch:type="MSPage">
        <circle id="circle" fill="#0769AD" sketch:type="MSShapeGroup" cx="50" cy="50" r="50"></circle>
        <path d="M43.7726591,33.8549805 L43.7726591,55.3178711 C43.7726591,57.881686 43.5936244,59.7937763 43.2355497,61.0541992 C42.877475,62.486498 42.2687571,63.6967724 41.4093778,64.6850586 C39.7335882,66.647308 37.5135583,67.628418 34.7492216,67.628418 C32.6580653,67.628418 30.7030067,67.0841526 28.8839872,65.9956055 L31.3332059,61.7202148 C32.5506599,62.5366252 33.6893204,62.9448242 34.7492216,62.9448242 C36.2388123,62.9448242 37.270052,62.3790747 37.8429716,61.2475586 C38.4445371,60.1160425 38.7453153,58.1394998 38.7453153,55.3178711 L38.7453153,33.8549805 L43.7726591,33.8549805 Z M68.9277344,38.7963867 L64.8671875,41.2026367 C64.1080691,39.8849218 63.3847691,39.0255554 62.6972656,38.6245117 C61.9811162,38.1661761 61.0572973,37.9370117 59.9257812,37.9370117 C58.5364514,37.9370117 57.3834681,38.330888 56.4667969,39.1186523 C55.5501256,39.8920937 55.0917969,40.8660423 55.0917969,42.0405273 C55.0917969,43.659025 56.2949098,44.9623974 58.7011719,45.9506836 L62.0097656,47.3041992 C64.7024874,48.3927463 66.6718688,49.7211836 67.9179688,51.2895508 C69.1640687,52.857918 69.7871094,54.7807503 69.7871094,57.0581055 C69.7871094,60.108902 68.7701925,62.6297101 66.7363281,64.6206055 C64.6881408,66.6258238 62.1458485,67.628418 59.109375,67.628418 C56.2304544,67.628418 53.852874,66.7762129 51.9765625,65.0717773 C50.128897,63.3673417 48.9759138,60.9682772 48.5175781,57.8745117 L53.5878906,56.7573242 C53.8170584,58.7052506 54.2180961,60.0515913 54.7910156,60.7963867 C55.8222708,62.2286855 57.326162,62.9448242 59.3027344,62.9448242 C60.8639401,62.9448242 62.1601511,62.422043 63.1914062,61.3764648 C64.2226614,60.3308867 64.7382812,59.0060302 64.7382812,57.4018555 C64.7382812,56.757321 64.6487639,56.1665066 64.4697266,55.6293945 C64.2906892,55.0922825 64.0113951,54.5981468 63.6318359,54.1469727 C63.2522767,53.6957985 62.7617218,53.2732767 62.1601562,52.8793945 C61.5585907,52.4855124 60.8424521,52.1095396 60.0117188,51.7514648 L56.8105469,50.4194336 C52.2701596,48.5001532 50,45.6928896 50,41.9975586 C50,39.5053586 50.9524644,37.4213951 52.8574219,35.7456055 C54.7623793,34.0554929 57.1327983,33.2104492 59.96875,33.2104492 C63.7929879,33.2104492 66.7792861,35.0724098 68.9277344,38.7963867 L68.9277344,38.7963867 Z" id="JS-(outline)" fill="#FFFFFF" sketch:type="MSShapeGroup"></path>
    </g>
</svg>

<svg xmlns="http://www.w3.org/2000/svg" width="100" height="100" viewBox="0 0 100 100">
    <circle fill="#0769ad" cx="50" cy="50" r="50"/>
    <path fill="#fff" d="M43.773 33.855v21.463c0 2.564-.179 4.476-.537 5.736-.358 1.432-.967 2.643-1.826 3.631-1.676 1.962-3.896 2.943-6.66 2.943-2.091 0-4.046-.544-5.865-1.633l2.449-4.275c1.217.816 2.356 1.225 3.416 1.225 1.49 0 2.521-.566 3.094-1.697.602-1.132.902-3.108.902-5.93V33.855h5.027zm25.155 4.941l-4.061 2.406c-.759-1.318-1.482-2.177-2.17-2.578-.716-.458-1.64-.687-2.771-.687-1.389 0-2.542.394-3.459 1.182-.917.773-1.375 1.747-1.375 2.922 0 1.618 1.203 2.922 3.609 3.91l3.309 1.354c2.693 1.089 4.662 2.417 5.908 3.985s1.869 3.491 1.869 5.769c0 3.051-1.017 5.572-3.051 7.562-2.048 2.005-4.59 3.008-7.627 3.008-2.879 0-5.257-.852-7.133-2.557-1.848-1.704-3.001-4.104-3.459-7.197l5.07-1.117c.229 1.948.63 3.294 1.203 4.039 1.031 1.432 2.535 2.148 4.512 2.148 1.561 0 2.857-.523 3.889-1.568s1.547-2.37 1.547-3.975c0-.645-.09-1.235-.269-1.772s-.458-1.031-.838-1.482-.87-.874-1.472-1.268-1.318-.77-2.148-1.128l-3.201-1.332C52.27 48.5 50 45.693 50 41.998c0-2.492.952-4.576 2.857-6.252 1.905-1.69 4.275-2.535 7.111-2.535 3.824 0 6.811 1.862 8.959 5.586h0z"/>
</svg>
